P3
32 32
255
10 8 20 10 8 20 10 8 20 10 8 20 10 8 20 10 8 20 10 8 20 10 8 20 10 8 20 10 8 20 10 8 20 10 8 20 10 8 20 10 8 20 10 8 20 10 8 20 10 8 20 10 8 20 10 8 20 10 8 20 10 8 20 10 8 20 10 8 20 10 8 20 10 8 20 10 8 20 10 8 20 10 8 20 10 8 20 10 8 20 10 8 20 10 8 20
10 8 20 10 8 20 10 8 20 10 8 20 10 8 20 10 8 20 10 8 20 10 8 20 10 8 20 10 8 20 10 8 20 10 8 20 10 8 20 10 8 20 10 8 20 10 8 20 10 8 20 10 8 20 10 8 20 10 8 20 10 8 20 10 8 20 10 8 20 10 8 20 10 8 20 10 8 20 10 8 20 10 8 20 10 8 20 10 8 20 10 8 20 10 8 20
10 8 20 10 8 20 94 218 213 94 218 213 94 218 213 94 218 213 94 218 213 94 218 213 94 218 213 94 218 213 94 218 213 94 218 213 94 218 213 94 218 213 94 218 213 94 218 213 94 218 213 94 218 213 94 218 213 94 218 213 94 218 213 94 218 213 94 218 213 94 218 213 94 218 213 94 218 213 94 218 213 94 218 213 94 218 213 94 218 213 10 8 20 10 8 20
10 8 20 10 8 20 94 218 213 10 8 20 10 8 20 10 8 20 10 8 20 10 8 20 10 8 20 10 8 20 10 8 20 10 8 20 10 8 20 10 8 20 10 8 20 10 8 20 10 8 20 10 8 20 10 8 20 10 8 20 10 8 20 10 8 20 10 8 20 10 8 20 10 8 20 10 8 20 10 8 20 10 8 20 10 8 20 94 218 213 10 8 20 10 8 20
10 8 20 10 8 20 94 218 213 10 8 20 10 8 20 10 8 20 10 8 20 10 8 20 10 8 20 10 8 20 10 8 20 10 8 20 10 8 20 10 8 20 10 8 20 10 8 20 10 8 20 10 8 20 10 8 20 10 8 20 10 8 20 10 8 20 10 8 20 10 8 20 10 8 20 10 8 20 10 8 20 10 8 20 10 8 20 94 218 213 10 8 20 10 8 20
10 8 20 10 8 20 94 218 213 10 8 20 10 8 20 10 8 20 10 8 20 10 8 20 10 8 20 10 8 20 10 8 20 10 8 20 10 8 20 10 8 20 53 36 88 53 36 88 53 36 88 53 36 88 53 36 88 10 8 20 10 8 20 10 8 20 10 8 20 10 8 20 10 8 20 10 8 20 10 8 20 10 8 20 10 8 20 94 218 213 10 8 20 10 8 20
10 8 20 10 8 20 94 218 213 10 8 20 10 8 20 10 8 20 10 8 20 10 8 20 10 8 20 10 8 20 10 8 20 10 8 20 10 8 20 10 8 20 53 36 88 53 36 88 53 36 88 53 36 88 53 36 88 10 8 20 10 8 20 10 8 20 10 8 20 10 8 20 10 8 20 10 8 20 10 8 20 10 8 20 10 8 20 94 218 213 10 8 20 10 8 20
10 8 20 10 8 20 94 218 213 10 8 20 10 8 20 10 8 20 10 8 20 10 8 20 10 8 20 10 8 20 10 8 20 10 8 20 10 8 20 53 36 88 53 36 88 53 36 88 53 36 88 53 36 88 53 36 88 53 36 88 10 8 20 10 8 20 10 8 20 10 8 20 10 8 20 10 8 20 10 8 20 10 8 20 10 8 20 94 218 213 10 8 20 10 8 20
10 8 20 10 8 20 94 218 213 10 8 20 10 8 20 10 8 20 10 8 20 10 8 20 10 8 20 10 8 20 10 8 20 10 8 20 10 8 20 53 36 88 53 36 88 170 76 184 170 76 184 170 76 184 53 36 88 53 36 88 10 8 20 10 8 20 10 8 20 10 8 20 10 8 20 10 8 20 10 8 20 10 8 20 10 8 20 94 218 213 10 8 20 10 8 20
10 8 20 10 8 20 94 218 213 10 8 20 10 8 20 10 8 20 10 8 20 10 8 20 10 8 20 10 8 20 10 8 20 10 8 20 53 36 88 53 36 88 170 76 184 170 76 184 170 76 184 170 76 184 170 76 184 53 36 88 53 36 88 10 8 20 10 8 20 10 8 20 10 8 20 10 8 20 10 8 20 10 8 20 10 8 20 94 218 213 10 8 20 10 8 20
10 8 20 10 8 20 94 218 213 10 8 20 10 8 20 10 8 20 10 8 20 10 8 20 10 8 20 10 8 20 10 8 20 53 36 88 53 36 88 170 76 184 170 76 184 170 76 184 170 76 184 170 76 184 170 76 184 170 76 184 53 36 88 53 36 88 10 8 20 10 8 20 10 8 20 10 8 20 10 8 20 10 8 20 10 8 20 94 218 213 10 8 20 10 8 20
10 8 20 10 8 20 94 218 213 10 8 20 10 8 20 10 8 20 10 8 20 10 8 20 10 8 20 10 8 20 53 36 88 53 36 88 53 36 88 170 76 184 170 76 184 92 235 225 92 235 225 92 235 225 170 76 184 170 76 184 53 36 88 53 36 88 53 36 88 10 8 20 10 8 20 10 8 20 10 8 20 10 8 20 10 8 20 94 218 213 10 8 20 10 8 20
10 8 20 10 8 20 94 218 213 10 8 20 10 8 20 10 8 20 10 8 20 10 8 20 10 8 20 53 36 88 53 36 88 53 36 88 170 76 184 170 76 184 170 76 184 92 235 225 92 235 225 92 235 225 170 76 184 170 76 184 170 76 184 53 36 88 53 36 88 53 36 88 10 8 20 10 8 20 10 8 20 10 8 20 10 8 20 94 218 213 10 8 20 10 8 20
10 8 20 10 8 20 94 218 213 10 8 20 10 8 20 10 8 20 10 8 20 10 8 20 53 36 88 53 36 88 53 36 88 170 76 184 170 76 184 170 76 184 92 235 225 92 235 225 92 235 225 92 235 225 92 235 225 170 76 184 170 76 184 170 76 184 53 36 88 53 36 88 53 36 88 10 8 20 10 8 20 10 8 20 10 8 20 94 218 213 10 8 20 10 8 20
10 8 20 10 8 20 94 218 213 10 8 20 10 8 20 10 8 20 10 8 20 53 36 88 53 36 88 53 36 88 170 76 184 170 76 184 170 76 184 92 235 225 92 235 225 92 235 225 92 235 225 92 235 225 92 235 225 92 235 225 170 76 184 170 76 184 170 76 184 53 36 88 53 36 88 53 36 88 10 8 20 10 8 20 10 8 20 94 218 213 10 8 20 10 8 20
10 8 20 10 8 20 94 218 213 10 8 20 10 8 20 10 8 20 53 36 88 53 36 88 53 36 88 170 76 184 170 76 184 170 76 184 92 235 225 92 235 225 92 235 225 92 235 225 92 235 225 92 235 225 92 235 225 92 235 225 92 235 225 170 76 184 170 76 184 170 76 184 53 36 88 53 36 88 53 36 88 10 8 20 10 8 20 94 218 213 10 8 20 10 8 20
10 8 20 10 8 20 94 218 213 10 8 20 10 8 20 10 8 20 10 8 20 53 36 88 53 36 88 53 36 88 170 76 184 170 76 184 170 76 184 92 235 225 92 235 225 92 235 225 92 235 225 92 235 225 92 235 225 92 235 225 170 76 184 170 76 184 170 76 184 53 36 88 53 36 88 53 36 88 10 8 20 10 8 20 10 8 20 94 218 213 10 8 20 10 8 20
10 8 20 10 8 20 94 218 213 10 8 20 10 8 20 10 8 20 10 8 20 10 8 20 53 36 88 53 36 88 53 36 88 170 76 184 170 76 184 170 76 184 92 235 225 92 235 225 92 235 225 92 235 225 92 235 225 170 76 184 170 76 184 170 76 184 53 36 88 53 36 88 53 36 88 10 8 20 10 8 20 10 8 20 10 8 20 94 218 213 10 8 20 10 8 20
10 8 20 10 8 20 94 218 213 10 8 20 10 8 20 10 8 20 10 8 20 10 8 20 10 8 20 53 36 88 53 36 88 53 36 88 170 76 184 170 76 184 170 76 184 92 235 225 92 235 225 92 235 225 170 76 184 170 76 184 170 76 184 53 36 88 53 36 88 53 36 88 10 8 20 10 8 20 10 8 20 10 8 20 10 8 20 94 218 213 10 8 20 10 8 20
10 8 20 10 8 20 94 218 213 10 8 20 10 8 20 10 8 20 10 8 20 10 8 20 10 8 20 10 8 20 53 36 88 53 36 88 53 36 88 170 76 184 170 76 184 92 235 225 92 235 225 92 235 225 170 76 184 170 76 184 53 36 88 53 36 88 53 36 88 10 8 20 10 8 20 10 8 20 10 8 20 10 8 20 10 8 20 94 218 213 10 8 20 10 8 20
10 8 20 10 8 20 94 218 213 10 8 20 10 8 20 10 8 20 10 8 20 10 8 20 10 8 20 10 8 20 10 8 20 53 36 88 53 36 88 170 76 184 170 76 184 170 76 184 170 76 184 170 76 184 170 76 184 170 76 184 53 36 88 53 36 88 10 8 20 10 8 20 10 8 20 10 8 20 10 8 20 10 8 20 10 8 20 94 218 213 10 8 20 10 8 20
10 8 20 10 8 20 94 218 213 10 8 20 10 8 20 10 8 20 10 8 20 10 8 20 10 8 20 10 8 20 10 8 20 10 8 20 53 36 88 53 36 88 170 76 184 170 76 184 170 76 184 170 76 184 170 76 184 53 36 88 53 36 88 10 8 20 10 8 20 10 8 20 10 8 20 10 8 20 10 8 20 10 8 20 10 8 20 94 218 213 10 8 20 10 8 20
10 8 20 10 8 20 94 218 213 10 8 20 10 8 20 10 8 20 10 8 20 10 8 20 10 8 20 10 8 20 10 8 20 10 8 20 10 8 20 53 36 88 53 36 88 170 76 184 170 76 184 170 76 184 53 36 88 53 36 88 10 8 20 10 8 20 10 8 20 10 8 20 10 8 20 10 8 20 10 8 20 10 8 20 10 8 20 94 218 213 10 8 20 10 8 20
10 8 20 10 8 20 94 218 213 10 8 20 10 8 20 10 8 20 10 8 20 10 8 20 10 8 20 10 8 20 10 8 20 10 8 20 10 8 20 53 36 88 53 36 88 53 36 88 53 36 88 53 36 88 53 36 88 53 36 88 10 8 20 10 8 20 10 8 20 10 8 20 10 8 20 10 8 20 10 8 20 10 8 20 10 8 20 94 218 213 10 8 20 10 8 20
10 8 20 10 8 20 94 218 213 10 8 20 10 8 20 10 8 20 10 8 20 10 8 20 10 8 20 10 8 20 10 8 20 10 8 20 10 8 20 10 8 20 214 221 227 214 221 227 214 221 227 214 221 227 214 221 227 10 8 20 10 8 20 10 8 20 10 8 20 10 8 20 10 8 20 10 8 20 10 8 20 10 8 20 10 8 20 94 218 213 10 8 20 10 8 20
10 8 20 10 8 20 94 218 213 10 8 20 10 8 20 10 8 20 10 8 20 10 8 20 10 8 20 10 8 20 10 8 20 10 8 20 10 8 20 10 8 20 214 221 227 214 221 227 214 221 227 214 221 227 214 221 227 10 8 20 10 8 20 10 8 20 10 8 20 10 8 20 10 8 20 10 8 20 10 8 20 10 8 20 10 8 20 94 218 213 10 8 20 10 8 20
10 8 20 10 8 20 94 218 213 10 8 20 10 8 20 10 8 20 10 8 20 10 8 20 10 8 20 10 8 20 10 8 20 10 8 20 10 8 20 10 8 20 214 221 227 214 221 227 214 221 227 214 221 227 214 221 227 10 8 20 10 8 20 10 8 20 10 8 20 10 8 20 10 8 20 10 8 20 10 8 20 10 8 20 10 8 20 94 218 213 10 8 20 10 8 20
10 8 20 10 8 20 94 218 213 10 8 20 10 8 20 10 8 20 10 8 20 10 8 20 10 8 20 10 8 20 10 8 20 10 8 20 10 8 20 10 8 20 214 221 227 214 221 227 214 221 227 214 221 227 214 221 227 10 8 20 10 8 20 10 8 20 10 8 20 10 8 20 10 8 20 10 8 20 10 8 20 10 8 20 10 8 20 94 218 213 10 8 20 10 8 20
10 8 20 10 8 20 94 218 213 10 8 20 10 8 20 10 8 20 10 8 20 10 8 20 10 8 20 10 8 20 10 8 20 10 8 20 10 8 20 10 8 20 214 221 227 214 221 227 214 221 227 214 221 227 214 221 227 10 8 20 10 8 20 10 8 20 10 8 20 10 8 20 10 8 20 10 8 20 10 8 20 10 8 20 10 8 20 94 218 213 10 8 20 10 8 20
10 8 20 10 8 20 94 218 213 94 218 213 94 218 213 94 218 213 94 218 213 94 218 213 94 218 213 94 218 213 94 218 213 94 218 213 94 218 213 94 218 213 94 218 213 94 218 213 94 218 213 94 218 213 94 218 213 94 218 213 94 218 213 94 218 213 94 218 213 94 218 213 94 218 213 94 218 213 94 218 213 94 218 213 94 218 213 94 218 213 10 8 20 10 8 20
10 8 20 10 8 20 10 8 20 10 8 20 10 8 20 10 8 20 10 8 20 10 8 20 10 8 20 10 8 20 10 8 20 10 8 20 10 8 20 10 8 20 10 8 20 10 8 20 10 8 20 10 8 20 10 8 20 10 8 20 10 8 20 10 8 20 10 8 20 10 8 20 10 8 20 10 8 20 10 8 20 10 8 20 10 8 20 10 8 20 10 8 20 10 8 20
10 8 20 10 8 20 10 8 20 10 8 20 10 8 20 10 8 20 10 8 20 10 8 20 10 8 20 10 8 20 10 8 20 10 8 20 10 8 20 10 8 20 10 8 20 10 8 20 10 8 20 10 8 20 10 8 20 10 8 20 10 8 20 10 8 20 10 8 20 10 8 20 10 8 20 10 8 20 10 8 20 10 8 20 10 8 20 10 8 20 10 8 20 10 8 20
